X: 1
T: Duplication of No 39
N: Derived from Duplication_of_No_39.krn
%%abc-version 2.0
%%abcx-abcm2ps-target-version 5.9.1 (29 Sep 2008)
%%abc-creator hum2abc beta
%%abcx-conversion-date 2019/03/15 08:36:49
%%humdrum-veritas 499216680
%%humdrum-veritas-data 2496825872
%%linebreak <none>
%%barnumbers 0
L: 1/16
M: 2/4
%%staves {1 2}
V: 1 clef=bass
V: 2 clef=bass
K: Eb
[V:1] [K:clef=bass][M:2/4]E4FE3 [I:setbarnb 2]||  
[V:2] [K:clef=bass][M:2/4]G,,4G,,4 ||  
[V:1] [M:3/4]E8E4 ||  
[V:2] [M:3/4]G,,4G,,4G,,4 ||  
[V:1] [M:2/4]B,4CB,C3/B,/ | 
[V:2] [M:2/4]G,,4G,,4 | 
[V:1] G,G,F,2 F,E,3 | 
[V:2] z8 | 
[V:1] E,8 | 
[V:2] z8 | 
[V:1] CB,3 CB,3 | 
[V:2] z8 | 
[V:1] B,8 ||  
[V:2] z8 ||  
[V:1] [M:3/4]CB,3 F,3G, G,2F,2 ||  
[V:2] [M:3/4]z12 ||  
[V:1] [M:2/4]E,8 | 
[V:2] [M:2/4]z8 | 
[V:1] G,E,3 G,E,3 | 
[V:2] z8 | 
[V:1] E,8 | 
[V:2] z8 | 
[V:1] G,E,3 C,3E, | 
[V:2] z8 | 
[V:1] E,C,3 C,2B,,2 | 
[V:2] z8 | 
[V:1] B,,2B,,2 B,,3B,, | 
[V:2] z8 | 
[V:1] B,,4CB,CB, | 
[V:2] z8 | 
[V:1] CB,3 CB,C3/B,/ | 
[V:2] z8 | 
[V:1] A,A,G,2 F,E,3 ||  
[V:2] z8 ||  
[V:1] [M:3/4]E,12 :|]  
[V:2] [M:3/4]z12 :|]  
[V:1] [M:2/4]B,,2B,,2 B,,3B,, | 
[V:2] [M:2/4]z8 | 
[V:1] B,,8 | 
[V:2] z8 | 
[V:1] C2C2 C!fermata!B,2C | 
[V:2] z8 | 
[V:1] (3C2B,2G,2 F,2 F,/E,3/ | 
[V:2] z8 | 
[V:1] E,8 |]  
[V:2] z8 |]  



